!!!ONB: MCCC : IJB0045_01 : Extracted Monophonic Melody
!!!COM: Brahms, Johannes
!!!OPR: 6 Klavierstücke
!!!OMV: 1
!!!SCT: Op.118
!!!ODT: 1893///
**kern
*staff1
=1
*clefG2
*k[]
*C:
*M4/4
4ccc
2.bb-
=2
4aa
8c
8a
8cc
8ee
4ccc
=3
4aa
2.gg
=4
4ff
8A
8f
8a
8cc
4aa
=5
4ff
2ee
4ee-
=6
4b
2dd
4cc
=7
4f#
2a
4g#[
=8
4g#]
2g
4g
=9
1g
=10
1g
=11
4gg
2.gg#
=12
4aa
2ccc[
4ccc]
=13
8ff#
8ee-
8cc
8b
8g#
8f
8d
8c
=14
8A
8F#
4r
2r
=15
4cc
2.cc#
=16
4dd
2ff[
8ff]
8dd
=17
8b
8g#
8f
8e
8c#
8B-
8r
8ee
=18
8cc#
8b-
8g
8f#
8e-
8c
8r
8aa
=19
8ff#
8a
8aa
8ee
8a
8aa
4gg[
=20
8gg]
8ff#
8r
8ccc
8aa
8cc
8ccc
8gg
=21
8cc
8ccc
2.bb-
=22
4aa
8c
8a
8cc
8aa
4ccc
=23
4eee
2ddd[
8ddd]
8bb
=24
8ccc
8ff#
8gg
8ee
8cc
8f#
4g
=25
4ee
2gg
4ff
=26
4cc
2ee
4dd
=27
4a
4cc[
4cc]
4b[
=28
4b]
2g#
4a
=29
4a
2.g#
=30
4a[
2.a]
=31
4gg
2.gg#
=32
4aa
2ccc[
4ccc]
=33
8ff#
8ee-
8cc
8b
8g#
8f
8d
8c
=34
8A
8F#
4r
2r
=35
4cc
2.cc#
=36
4dd
2ff[
8ff]
8dd
=37
8b
8g#
8f
8e
8c#
8B-
8r
8ee
=38
8cc#
8b-
8g
8f#
8e-
8c
8r
8aa
=39
8ff#
8a
8aa
8ee
8a
8aa
4gg[
=40
8gg]
8ff#
8r
8ccc
8aa
8cc
8ccc
8gg
=41
8cc
8ccc
2.bb-
=42
4aa
8c
8a
8cc
8aa
4ccc
=43
4eee
2ddd[
8ddd]
8bb
=44
8ccc
8ff#
8gg
8ee
8cc
8f#
4g
=45
4ee
2gg
4ff
=46
4cc
2ee
4dd
=47
4a
4cc[
4cc]
4b[
=48
4b]
2g#
4a[
=49
4a]
2g#
4a[
=50
4a]
2a
4a[
=51
4a]
4r
2r
=52
4r
8F#
8A
8c
8e-
8f#
8a
=53
8cc
8ee-
8ff#
8aa
8ccc
8eee-
8fff#
8eee
=54
8ccc
8aa
8ff#
8ff
8dd
8b
8g#
8g
=55
8e
8c#
4B-
4B-
4A
=56
2r
4r
4dd
=57
4dd
2.cc[
=58
2.cc]
4b
=59
4b
2.e
=60
1e
=61
4ccc#
2.ccc#[
=62
4ccc#]
4r
2r
==
*-
